X: 39937
T: Thompson's
R: jig
M: 6/8
K: Gmajor
B^AB GBd|gba ged|ege gBG|A^GA B2 A|
GED GB/c/d|g/a/ba ged|ege dB/c/d|egf g2:|
gba ged|ege dBG|gba ged|ea^g a=ge|
g/a/ba ged|e/f/ge dBG|B^AB dB=A|GFA G2:|

